build/service/ThumbsDownOutline.svg

<svg xmlns="http://www.w3.org/2000/svg" fill="none" viewBox="0 0 24 24" focusable="false"><path d="M0 0H24V24H0z"/><path fill="#74767B" fill-rule="evenodd" d="M19.6961 4C20.4141 4 20.9961 4.58661 20.9961 5.31024L20.9961 13.0663C20.9961 13.7899 20.4141 14.3765 19.6961 14.3765L16.084 14.3765L14.0109 16.8297C13.6242 17.2874 13.4118 17.8689 13.4118 18.4701L13.4118 18.5683C13.4118 19.9113 12.3316 21 10.9991 21C9.66661 21 8.58642 19.9113 8.58642 18.5683L8.58642 17.9155C8.58642 17.6653 8.6177 17.4162 8.67955 17.1738L9.14937 15.3324L7.00148 15.3324C5.04937 15.3324 3.61723 13.4831 4.09129 11.5745L5.40404 6.28935C5.73826 4.94379 6.93799 4 8.31424 4L19.6961 4ZM15.2721 13.3166L15.2721 5.31024L8.31424 5.31024C7.53437 5.31024 6.85452 5.84505 6.66513 6.60753L5.35237 11.8927C5.08374 12.9743 5.89529 14.0222 7.00148 14.0222L9.14937 14.0222C9.55123 14.0222 9.93049 14.2095 10.1767 14.5296C10.423 14.8496 10.5085 15.2665 10.4084 15.6588L9.97955 17.3395C9.9177 17.5819 9.88642 17.8311 9.88642 18.0812L9.88642 18.5683C9.88642 19.1877 10.3846 19.6898 10.9991 19.6898C11.6136 19.6898 12.1118 19.1877 12.1118 18.5683L12.1118 18.4701C12.1118 17.5576 12.4342 16.6749 13.0213 15.9802L15.2721 13.3166ZM16.6024 13.0663L16.6024 5.31023L19.6961 5.31024L19.6961 13.0663L16.6024 13.0663Z"/></svg>

<svg xmlns="http://www.w3.org/2000/svg" fill="none" viewBox="0 0 24 24" focusable="false"><path fill="#74767B" fill-rule="evenodd" d="M19.69 4c.72 0 1.3.58 1.3 1.31v7.75c0 .72-.58 1.31-1.3 1.31h-3.61l-2.07 2.45c-.39.46-.6 1.04-.6 1.65v.09c0 1.35-1.08 2.44-2.42 2.44-1.33 0-2.41-1.09-2.41-2.44v-.65c0-.25.03-.5.09-.74l.47-1.84H7c-1.96 0-3.39-1.85-2.91-3.76L5.4 6.28A2.995 2.995 0 0 1 8.31 4zm-4.42 9.31v-8H8.31A1.7 1.7 0 0 0 6.66 6.6l-1.31 5.29A1.71 1.71 0 0 0 7 14.02h2.14c.41 0 .79.18 1.03.5.25.32.33.74.23 1.13l-.43 1.68q-.09.375-.09.75v.48a1.116 1.116 0 1 0 2.23 0v-.09c0-.92.32-1.8.91-2.49zm1.33-.25V5.31h3.09v7.75z"/></svg>
